X:138
T:B138-  Farewell, ungrateful traitor
Q:1/4=120
L:1/4
M:C|
K:Gm
d|(e/2d/2) (c/2B/2)cd|B2GA|B(A/2B/2) (c/2B/2) (A/2G/2)|A3d|\
f (g/2f/2) (e/2d/2) (c/2B/2)|e2 (d/2c/2) (B/2A/2)|\
d(=e/2f/2) (g/2f/2) (e/2d/2)|d3e|\
(f/2e/2) (d/2c/2) (e/2d/2) (c/2B/2)|c2A(c/2B/2)|\
(A/2B/2) (A/2G/2)de|c2f^f|(g/2a/2)df(g/2f/2)|\
=e2cf|d(g/2f/2) (=e/2f/2) g|^f3d|\
f(c/2d/2) (e/2d/2) (c/2B/2)|c2AB|\
c(e/2d/2) (c/2B/2) (A/2G/2)|G3|]
